dist/icons/svgs/search-outline.svg

<svg xmlns="http://www.w3.org/2000/svg" width="24" height="24" fill="currentcolor" class="icon-search-outline" viewBox="0 0 24 24">
  <path d="M16.382 10.1171C16.382 7.89268 15.1705 5.86341 13.2555 4.73171C11.3014 3.6 8.91744 3.6 7.00244 4.73171C5.04836 5.86341 3.87592 7.89268 3.87592 10.1171C3.87592 12.3805 5.04836 14.4098 7.00244 15.5415C8.91744 16.6732 11.3014 16.6732 13.2555 15.5415C15.1705 14.4098 16.382 12.3805 16.382 10.1171ZM15.1705 16.5171C13.7636 17.6098 12.0049 18.2341 10.129 18.2341C5.63459 18.2341 2 14.6049 2 10.1171C2 5.66829 5.63459 2 10.129 2C14.5843 2 18.2579 5.66829 18.2579 10.1171C18.2579 12.0293 17.5936 13.7854 16.4993 15.1902L21.7362 20.3805C22.0879 20.7707 22.0879 21.3561 21.7362 21.7073C21.3454 22.0976 20.7592 22.0976 20.4074 21.7073L15.1705 16.5171Z"/>
</svg>

<svg xmlns="http://www.w3.org/2000/svg" width="24" height="24" fill="currentColor" class="icon-search-outline" viewBox="0 0 24 24">
  <path d="M16.382 10.117c0-2.224-1.212-4.254-3.127-5.385-1.954-1.132-4.338-1.132-6.253 0-1.954 1.131-3.126 3.16-3.126 5.385a6.21 6.21 0 0 0 3.126 5.424c1.915 1.132 4.3 1.132 6.254 0 1.915-1.131 3.126-3.16 3.126-5.424m-1.212 6.4a8.2 8.2 0 0 1-5.041 1.717C5.635 18.234 2 14.604 2 10.117 2 5.668 5.635 2 10.129 2c4.455 0 8.129 3.668 8.129 8.117a8.23 8.23 0 0 1-1.759 5.073l5.237 5.19c.352.39.352.976 0 1.327-.39.39-.977.39-1.329 0z"/>
</svg>
